Catalina-dark/status/16/user-idle-symbolic.svg

<?xml version="1.0" encoding="UTF-8" standalone="no"?>
<!-- Created with Inkscape (http://www.inkscape.org/) -->

<svg
   xmlns:dc="http://purl.org/dc/elements/1.1/"
   xmlns:cc="http://creativecommons.org/ns#"
   xmlns:rdf="http://www.w3.org/1999/02/22-rdf-syntax-ns#"
   xmlns:svg="http://www.w3.org/2000/svg"
   xmlns="http://www.w3.org/2000/svg"
   xmlns:sodipodi="http://sodipodi.sourceforge.net/DTD/sodipodi-0.dtd"
   xmlns:inkscape="http://www.inkscape.org/namespaces/inkscape"
   id="svg7384"
   style="enable-background:new"
   height="16"
   width="16"
   version="1.1"
   inkscape:version="0.91 r13725"
   sodipodi:docname="user-idle-symbolic.svg">
  <sodipodi:namedview
     pagecolor="#ffffff"
     bordercolor="#666666"
     borderopacity="1"
     objecttolerance="10"
     gridtolerance="10"
     guidetolerance="10"
     inkscape:pageopacity="0"
     inkscape:pageshadow="2"
     inkscape:window-width="640"
     inkscape:window-height="480"
     id="namedview5797"
     showgrid="false"
     inkscape:zoom="41.1875"
     inkscape:cx="3.6783005"
     inkscape:cy="8"
     inkscape:current-layer="svg7384" />
  <metadata
     id="metadata90">
    <rdf:RDF>
      <cc:Work
         rdf:about="">
        <dc:format>image/svg+xml</dc:format>
        <dc:type
           rdf:resource="http://purl.org/dc/dcmitype/StillImage" />
        <dc:title>Paper Symbolic Icon Theme</dc:title>
      </cc:Work>
    </rdf:RDF>
  </metadata>
  <title
     id="title8473">Paper Symbolic Icon Theme</title>
  <defs
     id="defs7386">
    <filter
       id="filter7554"
       style="color-interpolation-filters:sRGB">
      <feBlend
         id="feBlend7556"
         in2="BackgroundImage"
         mode="darken" />
    </filter>
    <filter
       style="color-interpolation-filters:sRGB"
       id="filter7554-3">
      <feBlend
         mode="darken"
         in2="BackgroundImage"
         id="feBlend7556-5" />
    </filter>
  </defs>
  <path
     sodipodi:nodetypes="cssccccssccsccccccccccccc"
     inkscape:connector-curvature="0"
     d="m 3.7142855,2.5000003 c 0,0 -1.7142855,0 -1.7142855,1.6918677 l 0,5.075604 c 0,1.691867 1.7142855,1.691867 1.7142855,1.691867 L 7.9998284,10.959322 9.7141141,13.5 11.4284,10.959322 l 0.857314,1.7e-5 C 13.235428,10.959356 14,10.204766 14,9.267472 L 14,8.421538 14,6.72967 14,4.191868 C 14,2.5000003 12.312457,2.5000003 12.312457,2.5000003 Z m 3.6857143,0.8459339 1.4571428,0 0,2.5378018 0,1.691868 -1.7142857,0 -1.7142857,0 -0.8571429,0 0,-1.375599 0.8571429,0 1.9714286,0 z"
     style="opacity:0.35;fill:#bebebe"
     id="path3003" />
</svg>

<svg width="16" height="16" enable-background="new" version="1.1" xmlns="http://www.w3.org/2000/svg">
<path d="m3.7143 2.5s-1.7143 0-1.7143 1.6919v5.0756c0 1.6919 1.7143 1.6919 1.7143 1.6919l4.2855-1.7e-5 1.7143 2.5407 1.7143-2.5407 0.85731 1.7e-5c0.94971 1.7e-5 1.7143-0.75457 1.7143-1.6919v-0.84593-1.6919-2.5378c0-1.6919-1.6875-1.6919-1.6875-1.6919zm3.6857 0.84593h1.4571v2.5378 1.6919h-1.7143-1.7143-0.85714v-1.3756h0.85714 1.9714z" fill="#bebebe" opacity=".35"/>
</svg>
